src/components/00-materials/images-raw/Gear.svg

<svg width="96" height="96" viewBox="0 0 96 96" fill="none" xmlns="http://www.w3.org/2000/svg">
<path d="M31.27 59C28.7428 55.1844 27.6007 50.6176 28.0342 46.0616C28.4678 41.5056 30.4507 37.2361 33.6521 33.9656C36.8536 30.6951 41.0798 28.6216 45.6255 28.091C50.1712 27.5604 54.7614 28.6048 58.63 31.05M67.57 43.86C68.2596 47.1176 68.1249 50.4958 67.1782 53.6882C66.2315 56.8805 64.5027 59.786 62.1487 62.141C59.7947 64.496 56.89 66.226 53.698 67.174C50.506 68.1221 47.1279 68.2582 43.87 67.57" stroke="#00008F" stroke-width="2" stroke-linecap="round" stroke-linejoin="round"/>
<path d="M48 61C55.1797 61 61 55.1797 61 48C61 40.8203 55.1797 35 48 35C40.8203 35 35 40.8203 35 48C35 55.1797 40.8203 61 48 61Z" stroke="#00008F" stroke-width="2" stroke-linecap="round" stroke-linejoin="round"/>
<path d="M81 52.16V43.84C81.0018 43.3378 80.8146 42.8532 80.4756 42.4827C80.1365 42.1121 79.6705 41.8827 79.17 41.84L74.17 41.42C73.5356 38.8489 72.5246 36.3856 71.17 34.11L74.4 30.3C74.7227 29.9177 74.8903 29.4284 74.87 28.9286C74.8496 28.4288 74.6427 27.9548 74.29 27.6L68.4 21.71C68.0453 21.3573 67.5712 21.1504 67.0714 21.1301C66.5716 21.1097 66.0823 21.2774 65.7 21.6L61.89 24.83C59.6144 23.4754 57.1512 22.4645 54.58 21.83L54.16 16.83C54.1173 16.3296 53.8879 15.8635 53.5174 15.5245C53.1468 15.1854 52.6623 14.9982 52.16 15H43.84C43.3378 14.9982 42.8532 15.1854 42.4827 15.5245C42.1121 15.8635 41.8827 16.3296 41.84 16.83L41.42 21.83C38.8489 22.4645 36.3856 23.4754 34.11 24.83L30.3 21.6C29.9177 21.2774 29.4284 21.1097 28.9286 21.1301C28.4288 21.1504 27.9548 21.3573 27.6 21.71L21.71 27.6C21.3573 27.9548 21.1504 28.4288 21.1301 28.9286C21.1097 29.4284 21.2774 29.9177 21.6 30.3L24.83 34.11C23.4754 36.3856 22.4645 38.8489 21.83 41.42L16.83 41.84C16.3296 41.8827 15.8635 42.1121 15.5245 42.4827C15.1854 42.8532 14.9982 43.3378 15 43.84V52.16C14.9982 52.6623 15.1854 53.1468 15.5245 53.5174C15.8635 53.8879 16.3296 54.1173 16.83 54.16L21.83 54.58C22.4645 57.1512 23.4754 59.6144 24.83 61.89L21.6 65.7C21.2774 66.0823 21.1097 66.5716 21.1301 67.0714C21.1504 67.5712 21.3573 68.0453 21.71 68.4L27.6 74.29C27.9548 74.6427 28.4288 74.8496 28.9286 74.87C29.4284 74.8903 29.9177 74.7227 30.3 74.4L34.11 71.17C36.3856 72.5246 38.8489 73.5356 41.42 74.17L41.84 79.17C41.8827 79.6705 42.1121 80.1365 42.4827 80.4756C42.8532 80.8146 43.3378 81.0018 43.84 81H52.16C52.6623 81.0018 53.1468 80.8146 53.5174 80.4756C53.8879 80.1365 54.1173 79.6705 54.16 79.17L54.58 74.17C57.1512 73.5356 59.6144 72.5246 61.89 71.17L65.7 74.4C66.0823 74.7227 66.5716 74.8903 67.0714 74.87C67.5712 74.8496 68.0453 74.6427 68.4 74.29L74.29 68.4C74.6427 68.0453 74.8496 67.5712 74.87 67.0714C74.8903 66.5716 74.7227 66.0823 74.4 65.7L71.17 61.89C72.5246 59.6144 73.5356 57.1512 74.17 54.58L79.17 54.16C79.6705 54.1173 80.1365 53.8879 80.4756 53.5174C80.8146 53.1468 81.0018 52.6623 81 52.16Z" stroke="#00008F" stroke-width="2" stroke-linecap="round" stroke-linejoin="round"/>
</svg>

<svg width="96" height="96" viewBox="0 0 96 96" fill="none" xmlns="http://www.w3.org/2000/svg"><path d="M31.27 59a20 20 0 0127.36-27.95m8.94 12.81a20 20 0 01-23.7 23.71" stroke="#00008F" stroke-width="2" stroke-linecap="round" stroke-linejoin="round"/><path d="M48 61c7.18 0 13-5.82 13-13s-5.82-13-13-13-13 5.82-13 13 5.82 13 13 13z" stroke="#00008F" stroke-width="2" stroke-linecap="round" stroke-linejoin="round"/><path d="M81 52.16v-8.32a2 2 0 00-1.83-2l-5-.42a26.88 26.88 0 00-3-7.31l3.23-3.81a2 2 0 00-.11-2.7l-5.89-5.89a2 2 0 00-2.7-.11l-3.81 3.23a26.883 26.883 0 00-7.31-3l-.42-5a2 2 0 00-2-1.83h-8.32a2 2 0 00-2 1.83l-.42 5a26.884 26.884 0 00-7.31 3L30.3 21.6a2 2 0 00-2.7.11l-5.89 5.89a2 2 0 00-.11 2.7l3.23 3.81a26.884 26.884 0 00-3 7.31l-5 .42a2 2 0 00-1.83 2v8.32a2 2 0 001.83 2l5 .42a26.883 26.883 0 003 7.31L21.6 65.7a2 2 0 00.11 2.7l5.89 5.89a2 2 0 002.7.11l3.81-3.23a26.88 26.88 0 007.31 3l.42 5a2 2 0 002 1.83h8.32a2 2 0 002-1.83l.42-5a26.88 26.88 0 007.31-3l3.81 3.23a2 2 0 002.7-.11l5.89-5.89a2 2 0 00.11-2.7l-3.23-3.81a26.88 26.88 0 003-7.31l5-.42a2 2 0 001.83-2z" stroke="#00008F" stroke-width="2" stroke-linecap="round" stroke-linejoin="round"/></svg>
